svgs/duotone/building-un.svg

<svg xmlns="http://www.w3.org/2000/svg" viewBox="0 0 384 512"><!--! Font Awesome Pro 6.4.0 by @fontawesome - https://fontawesome.com License - https://fontawesome.com/license (Commercial License) Copyright 2023 Fonticons, Inc. --><defs><style>.fa-secondary{opacity:.4}</style></defs><path class="fa-primary" d="M237.3 71.1c-3.9-5.9-11.2-8.5-17.9-6.4s-11.4 8.3-11.4 15.3v96c0 8.8 7.2 16 16 16s16-7.2 16-16V132.8l34.7 52c3.9 5.9 11.2 8.5 17.9 6.4s11.4-8.3 11.4-15.3V80c0-8.8-7.2-16-16-16s-16 7.2-16 16v43.2l-34.7-52zM112 80c0-8.8-7.2-16-16-16s-16 7.2-16 16v64c0 26.5 21.5 48 48 48s48-21.5 48-48V80c0-8.8-7.2-16-16-16s-16 7.2-16 16v64c0 8.8-7.2 16-16 16s-16-7.2-16-16V80z"/><path class="fa-secondary" d="M48 0C21.5 0 0 21.5 0 48V464c0 26.5 21.5 48 48 48h96V432c0-26.5 21.5-48 48-48s48 21.5 48 48v80h96c26.5 0 48-21.5 48-48V48c0-26.5-21.5-48-48-48H48zM64 240c0-8.8 7.2-16 16-16h32c8.8 0 16 7.2 16 16v32c0 8.8-7.2 16-16 16H80c-8.8 0-16-7.2-16-16V240zm112-16h32c8.8 0 16 7.2 16 16v32c0 8.8-7.2 16-16 16H176c-8.8 0-16-7.2-16-16V240c0-8.8 7.2-16 16-16zm80 16c0-8.8 7.2-16 16-16h32c8.8 0 16 7.2 16 16v32c0 8.8-7.2 16-16 16H272c-8.8 0-16-7.2-16-16V240zM237.3 71.1l34.7 52V80c0-8.8 7.2-16 16-16s16 7.2 16 16v96c0 7.1-4.6 13.3-11.4 15.3s-14-.6-17.9-6.4l-34.7-52V176c0 8.8-7.2 16-16 16s-16-7.2-16-16V80c0-7.1 4.6-13.3 11.4-15.3s14 .6 17.9 6.4zM112 80v64c0 8.8 7.2 16 16 16s16-7.2 16-16V80c0-8.8 7.2-16 16-16s16 7.2 16 16v64c0 26.5-21.5 48-48 48s-48-21.5-48-48V80c0-8.8 7.2-16 16-16s16 7.2 16 16z"/></svg>

<svg xmlns="http://www.w3.org/2000/svg" viewBox="0 0 384 512"><!--! Font Awesome Pro 6.3.0 by @fontawesome - https://fontawesome.com License - https://fontawesome.com/license (Commercial License) Copyright 2023 Fonticons, Inc. --><defs><style>.fa-secondary{opacity:.4}</style></defs><path class="fa-primary" d="M219.4 64.69C226.1 62.64 233.4 65.26 237.3 71.13L272 123.2V80C272 71.16 279.2 64 288 64C296.8 64 304 71.16 304 80V176C304 183.1 299.4 189.3 292.6 191.3C285.9 193.4 278.6 190.7 274.7 184.9L240 132.8V176C240 184.8 232.8 192 224 192C215.2 192 208 184.8 208 176V80C208 72.95 212.6 66.73 219.4 64.69V64.69zM96 64C104.8 64 112 71.16 112 80V144C112 152.8 119.2 160 128 160C136.8 160 144 152.8 144 144V80C144 71.16 151.2 64 160 64C168.8 64 176 71.16 176 80V144C176 170.5 154.5 192 128 192C101.5 192 80 170.5 80 144V80C80 71.16 87.16 64 96 64V64z"/><path class="fa-secondary" d="M336 0C362.5 0 384 21.49 384 48V464C384 490.5 362.5 512 336 512H240V432C240 405.5 218.5 384 192 384C165.5 384 144 405.5 144 432V512H48C21.49 512 0 490.5 0 464V48C0 21.49 21.49 0 48 0H336zM64 272C64 280.8 71.16 288 80 288H112C120.8 288 128 280.8 128 272V240C128 231.2 120.8 224 112 224H80C71.16 224 64 231.2 64 240V272zM176 224C167.2 224 160 231.2 160 240V272C160 280.8 167.2 288 176 288H208C216.8 288 224 280.8 224 272V240C224 231.2 216.8 224 208 224H176zM256 272C256 280.8 263.2 288 272 288H304C312.8 288 320 280.8 320 272V240C320 231.2 312.8 224 304 224H272C263.2 224 256 231.2 256 240V272zM237.3 71.12C233.4 65.26 226.1 62.64 219.4 64.69C212.6 66.73 208 72.95 208 80V176C208 184.8 215.2 192 224 192C232.8 192 240 184.8 240 176V132.8L274.7 184.9C278.6 190.7 285.9 193.4 292.6 191.3C299.4 189.3 304 183.1 304 176V80C304 71.16 296.8 64 288 64C279.2 64 272 71.16 272 80V123.2L237.3 71.12zM112 80C112 71.16 104.8 64 96 64C87.16 64 80 71.16 80 80V144C80 170.5 101.5 192 128 192C154.5 192 176 170.5 176 144V80C176 71.16 168.8 64 160 64C151.2 64 144 71.16 144 80V144C144 152.8 136.8 160 128 160C119.2 160 112 152.8 112 144V80z"/></svg>
